X: 76
T:Dinny O'Keefe's
% Nottingham Music Database
S:Trad, arr Phil Rowe
M:6/8
K:D
"A"E2A ABA|"G"G2A Bcd|"A"e2A ABA|"Em"G3 F2G|
"A"E2A ABA|"G"G2A Bcd|"A"efe "G"dcB|"A"A3 A3::
"A" ~e3 efe|"D" ~d3 dcd|"A"e2A ABA|"Em"G3 F2G|
"A"E2A ABA|"G"G2A Bcd|"A"efe "G"dcB|"A"A3 A3:|<end>
<start>
